images/class_icons/red_guard.svg

<svg height="400" viewBox="0 0 400 400" width="400" xmlns="http://www.w3.org/2000/svg">
    <path
        d="m154.605 1.984c-1.387 1.092-3.682 4.57-5.1 7.729-4.015 8.95-8.255 10.038-15.778 4.048-7.943-6.324-11.958-4.871-31.892 11.543-15.493 12.757-16.023 13.632-13.134 21.694 1.951 5.442 1.787 5.58-6.421 5.39-12.039-.279-13.694 1.681-18.889 22.383-6.15 24.502-5.273 30.881 4.543 33.037 5.312 1.167 4.772 8.298-.9 11.878-6.636 4.189-7.412 6.714-5.408 17.594 1.365 7.405.656 7.698 11.855-4.898 13.102-14.737 13.81-15.737 12.662-17.882-.781-1.459-.319-2.359 2.731-5.318 4.172-4.05 6.456-10.264 10.621-28.907 1.352-6.055 2.757-12.247 3.121-13.761.605-2.514 1.078-2.804 5.464-3.343 7.863-.966 35.951-23.005 37.185-29.177l.526-2.629 8.149 3.513c18.006 7.763 30.132 11.256 37.445 10.787l6.667-.428.63 3.758c.652 3.894 3.291 9.97 6.786 15.625 2.002 3.238 2.082 3.27 8.368 3.27 3.491 0 6.347-.164 6.347-.365s-1.027-2.162-2.282-4.358c-2.86-5.003-2.867-4.913.483-6.301 4.007-1.66 6.168-7.595 3.864-10.611-.379-.495.137.062 1.146 1.238 1.01 1.175 4.171 5.936 7.025 10.579 2.855 4.643 6.163 9.172 7.353 10.065 2.017 1.514 11.769 3.379 11.769 2.25 0-2.764-12.603-25.595-18.447-33.418-4.519-6.049-7.657-6.874-15.4-4.051-9.021 3.29-12.024 1.202-12.024-8.36 0-9.518-3.132-11.755-28.489-20.346-13.996-4.741-16.97-5.063-20.576-2.228m27.295 21.105-2.298 3.471 1.763 3.563 1.763 3.563-7.39-2.655c-4.064-1.46-7.901-2.832-8.527-3.049-.756-.262-.371-1.16 1.147-2.679 2.623-2.623 2.977-6.474.872-9.479-1.349-1.926-1.046-1.887 6.777.889l8.19 2.905zm-58.836 9.447c1.521 1.279 3.403 2.326 4.183 2.326 2.017 0 .273 1.942-6.264 6.972-5.876 4.521-6.679 4.828-5.856 2.237.769-2.424-.891-5.277-4.266-7.329l-2.783-1.693 5.824-4.611c5.606-4.439 5.833-4.529 6.11-2.42.158 1.205 1.531 3.238 3.052 4.518m101.33 32.511c-1.878 2.075-1.431 2.414 4.276 3.241 4.831.7 5.517-.156 2.523-3.15-2.307-2.307-4.764-2.34-6.799-.091m-142.493 11.1c.922 0 2.894-.63 4.383-1.4 3.06-1.582 3.252-1.15 1.843 4.152-.469 1.766-1.313 4.98-1.874 7.141l-1.019 3.931-2.621-1.866c-3.516-2.504-4.923-2.36-8.613.88l-3.129 2.747 2.243-8.022c1.233-4.412 2.417-8.564 2.631-9.226.308-.955.81-.908 2.434.23 1.125.788 2.8 1.433 3.722 1.433m112.693.066c-52.111 5.89-97.905 34.448-132.321 82.519-12.002 16.765-33.143 59.695-30.632 62.205.243.243 2.884-1.066 5.869-2.908 2.985-1.843 5.621-3.35 5.858-3.35.529 0-.628 6.353-2.457 13.496-4.684 18.294-8.308 43.385-6.266 43.385.535 0 3.486-2.744 6.558-6.096l5.586-6.096v11.417c0 30.376 2.575 43.168 6.777 33.666 1.232-2.787 3.037-6.375 4.01-7.975l1.769-2.909 8.325 11.244c14.371 19.409 28.98 33.699 33.111 32.388.875-.278 3.21-3.291 5.187-6.696 6.513-11.217 17.549-19.61 30.721-23.365 5.447-1.553 5.506-2.821.514-11.043-28.914-47.626-28.009-98.814 2.551-144.26 24.137-35.894 56.329-54.72 111.613-65.273l13.295-2.538-7.79-2.469c-15.632-4.955-44.101-7.397-62.278-5.342m38.554 21.489c-6.745 1.72-12.476 3.339-12.735 3.598-.674.673 1.463 32.399 2.47 36.689.989 4.208 4.302 7.831 8.413 9.2 4.397 1.464 5.529 3.972 2.649 5.869-9.034 5.95-9.365 9.884-2.113 25.066 12.164 25.464 16.788 30.127 26.294 26.513 3.598-1.368 4.992.962 3.032 5.071-3.722 7.805-2.848 9.665 10.629 22.633 18.423 17.727 23.084 20.041 30.841 15.312 5.325-3.247 6.929-2.279 7.469 4.509.557 7.011 2.698 9.209 16.046 16.475 27.244 14.83 30.709 14.652 39.05-2 4.813-9.61 4.795-12.618-.106-17.143-4.312-3.98-25.465-15.559-33.434-18.301l-5.444-1.873-4.564 2.259c-5.25 2.598-6.191 2.389-5.471-1.212.821-4.102-1.565-7.418-13.17-18.302-16.301-15.291-18.903-17.124-24.188-17.045-3.915.059-4.3-.11-3.531-1.545 3.349-6.259-14.682-43.881-22.17-46.258-1.683-.534-1.577-.844 1.433-4.175l3.25-3.598-.008-10.318c-.009-12.683-1.521-30.51-2.788-32.877-1.4-2.617-7.48-2.213-21.854 1.453m12.998 22.113.506 8.347-2.613-2.613c-2.934-2.933-5.087-3.264-7.995-1.227-2.499 1.75-2.667 1.424-3.473-6.748-.65-6.594-.624-6.717 1.212-5.734 2.729 1.46 8.007 1.229 9.369-.411 1.854-2.234 2.452-.558 2.994 8.386m11.193 53.579 3.235 6.423h-2.935c-3.62 0-7.163 3.115-7.226 6.352-.034 1.809-.884.749-3.624-4.518-4.379-8.418-4.367-8.257-.601-8.257 3.069 0 5.278-1.663 6.396-4.816.88-2.481 1.29-2.065 4.755 4.816m-131.15 26.77c-2.05 9.015-3.074 23.721-1.648 23.66.379-.016 1.49-.635 2.469-1.376 4.07-3.079 8.227-1.483 9.145 3.51 1.402 7.618 3.633 8.751 21.184 10.762 22.413 2.567 26.548 2.439 31.591-.977 4.91-3.327 5.938-3.129 6.306 1.214.616 7.261 29.985 32.768 37.73 32.768 3.021 0 3.268 2.457.628 6.266-1.321 1.906-2.401 4.602-2.401 5.991 0 3.23 7.506 25.601 11.524 34.346 2.082 4.532 2.718 6.795 1.968 7.002-.609.169-2.747.665-4.752 1.103-4.566.998-5.471 2.539-14.282 24.344-6.493 16.07-6.642 16.331-9.017 15.757-1.327-.321-9.948-3.143-19.157-6.27l-16.743-5.685-4.854 2.196-4.854 2.196-8.814-5.134c-10.92-6.36-14.366-7.106-17.649-3.823-4.839 4.84-2.114 8.734 11.859 16.949l9.174 5.394.075 5.419c.132 9.475 3.66 11.948 28.538 20.007 18.357 5.947 20.676 5.559 25.006-4.179 1.199-2.699 2.968-6.642 3.93-8.763 2.226-4.911 4.002-5.421 11.049-3.174 15.71 5.01 17.327 4 24.82-15.504 9.833-25.592 10.017-27.045 4.256-33.606-4.023-4.582-3.713-5.133 5.302-9.443 11.237-5.371 11.834-8.281 5.275-25.701-9.666-25.676-11.583-28.441-19.713-28.441-6.381 0-8.811-4.652-5.184-9.924 7.201-10.468 5.49-13.582-17.848-32.484-13.212-10.701-16.134-11.476-22.977-6.093-6.352 4.997-13.784 2.625-14.692-4.688-1.171-9.437-12.688-13.255-42.383-14.049l-7.207-.193-3.544 3.985c-4.128 4.641-4.259 4.63-8.314-.702-3.689-4.849-5.146-5.517-5.796-2.66m39.178 12.31c3.406.343 6.193.726 6.193.851s-.617 1.409-1.371 2.855c-1.782 3.417-1.73 4.796.304 8.132l1.678 2.752-9.546-1.301c-9.002-1.227-9.512-1.411-8.936-3.211 1.509-4.716 1.503-7.055-.024-9.386l-1.59-2.426 3.549.556c1.953.305 6.337.836 9.743 1.178m129.292 7.592 5.21 4.976-2.916 1.959c-2.277 1.529-3.017 2.782-3.375 5.72l-.459 3.761-6.422-5.851-6.422-5.852 2.608-2.095c2.75-2.211 3.318-4.75 2.097-9.381l-.726-2.753 2.598 2.27c1.429 1.248 4.942 4.509 7.807 7.246m-65.635 17.988 8.873 7.32-2.888.59c-3.538.724-5.616 2.371-6.939 5.498l-1.006 2.379-8.467-7.129-8.467-7.13 3.421-1.672c2.422-1.183 3.679-2.546 4.303-4.665 1.095-3.721.545-3.957 11.17 4.809m124.914 17.897c2.229 2.11 2.136 4.042-.385 8.04-1.849 2.932-5.042 2.621-12.888-1.256-6.261-3.094-8.33-4.937-5.542-4.937 2.302 0 4.573-5.313 3.538-8.28l-.939-2.696 7.056 3.569c3.881 1.963 8.003 4.465 9.16 5.56m-91.553 42.37c0 .419-1.204.762-2.677.762-3.964 0-5.491.836-7.057 3.866-1.71 3.306-1.514 3.487-4.33-3.998l-2.294-6.095 3.47.465c3.125.42 3.728.141 6.08-2.806l2.611-3.272 2.099 5.158c1.154 2.837 2.098 5.501 2.098 5.92m-132.328 18.664c-25.768 9.465-27.254 46.32-2.314 57.402 9.794 4.353 29.68 1.831 30.784-3.903.372-1.931-12.804-8.747-19.238-9.953-14.796-2.773-18.146-21.084-5.02-27.438 8.058-3.901 15.642-.677 20.883 8.878 1.85 3.372 7.069 7.413 11.589 8.973 4.517 1.558 5.231.339 4.551-7.768-1.657-19.77-22.564-33.049-41.235-26.191m116.611 31.154c1.521.334 3.616.152 4.654-.404 2.27-1.215 2.274-1.183.417 3.3-.81 1.954-2.071 4.997-2.803 6.763l-1.331 3.211-1.725-2.285c-1.429-1.892-2.507-2.287-6.265-2.294l-4.539-.008 1.831-4.587c1.007-2.523 2.247-5.75 2.756-7.171l.926-2.583 1.657 2.725c1.006 1.654 2.744 2.964 4.422 3.333m-49.42 22.2c3.784 1.351 7.029 2.568 7.21 2.703.181.136-.541 1.47-1.606 2.964-2.269 3.187-2.47 6.307-.58 9.006 1.23 1.756.451 1.618-8.486-1.505-5.413-1.892-10.425-3.621-11.138-3.844-.832-.26-.091-1.117 2.064-2.389 2.987-1.762 3.361-2.395 3.361-5.683 0-4.44.182-4.464 9.175-1.252"
        fill-rule="evenodd" />
</svg>

<svg id="svg" xmlns="http://www.w3.org/2000/svg" xmlns:xlink="http://www.w3.org/1999/xlink" width="400" height="400" viewBox="0, 0, 400,400"><g id="svgg"><path id="path0" d="M154.605 1.984 C 153.218 3.076,150.923 6.554,149.505 9.713 C 145.490 18.663,141.250 19.751,133.727 13.761 C 125.784 7.437,121.769 8.890,101.835 25.304 C 86.342 38.061,85.812 38.936,88.701 46.998 C 90.652 52.440,90.488 52.578,82.280 52.388 C 70.241 52.109,68.586 54.069,63.391 74.771 C 57.241 99.273,58.118 105.652,67.934 107.808 C 73.246 108.975,72.706 116.106,67.034 119.686 C 60.398 123.875,59.622 126.400,61.626 137.280 C 62.991 144.685,62.282 144.978,73.481 132.382 C 86.583 117.645,87.291 116.645,86.143 114.500 C 85.362 113.041,85.824 112.141,88.874 109.182 C 93.046 105.132,95.330 98.918,99.495 80.275 C 100.847 74.220,102.252 68.028,102.616 66.514 C 103.221 64.000,103.694 63.710,108.080 63.171 C 115.943 62.205,144.031 40.166,145.265 33.994 L 145.791 31.365 153.940 34.878 C 171.946 42.641,184.072 46.134,191.385 45.665 L 198.052 45.237 198.682 48.995 C 199.334 52.889,201.973 58.965,205.468 64.620 C 207.470 67.858,207.550 67.890,213.836 67.890 C 217.327 67.890,220.183 67.726,220.183 67.525 C 220.183 67.324,219.156 65.363,217.901 63.167 C 215.041 58.164,215.034 58.254,218.384 56.866 C 222.391 55.206,224.552 49.271,222.248 46.255 C 221.869 45.760,222.385 46.317,223.394 47.493 C 224.404 48.668,227.565 53.429,230.419 58.072 C 233.274 62.715,236.582 67.244,237.772 68.137 C 239.789 69.651,249.541 71.516,249.541 70.387 C 249.541 67.623,236.938 44.792,231.094 36.969 C 226.575 30.920,223.437 30.095,215.694 32.918 C 206.673 36.208,203.670 34.120,203.670 24.558 C 203.670 15.040,200.538 12.803,175.181 4.212 C 161.185 -0.529,158.211 -0.851,154.605 1.984 M181.900 23.089 L 179.602 26.560 181.365 30.123 L 183.128 33.686 175.738 31.031 C 171.674 29.571,167.837 28.199,167.211 27.982 C 166.455 27.720,166.840 26.822,168.358 25.303 C 170.981 22.680,171.335 18.829,169.230 15.824 C 167.881 13.898,168.184 13.937,176.007 16.713 L 184.197 19.618 181.900 23.089 M123.064 32.536 C 124.585 33.815,126.467 34.862,127.247 34.862 C 129.264 34.862,127.520 36.804,120.983 41.834 C 115.107 46.355,114.304 46.662,115.127 44.071 C 115.896 41.647,114.236 38.794,110.861 36.742 L 108.078 35.049 113.902 30.438 C 119.508 25.999,119.735 25.909,120.012 28.018 C 120.170 29.223,121.543 31.256,123.064 32.536 M224.394 65.047 C 222.516 67.122,222.963 67.461,228.670 68.288 C 233.501 68.988,234.187 68.132,231.193 65.138 C 228.886 62.831,226.429 62.798,224.394 65.047 M81.901 76.147 C 82.823 76.147,84.795 75.517,86.284 74.747 C 89.344 73.165,89.536 73.597,88.127 78.899 C 87.658 80.665,86.814 83.879,86.253 86.040 L 85.234 89.971 82.613 88.105 C 79.097 85.601,77.690 85.745,74.000 88.985 L 70.871 91.732 73.114 83.710 C 74.347 79.298,75.531 75.146,75.745 74.484 C 76.053 73.529,76.555 73.576,78.179 74.714 C 79.304 75.502,80.979 76.147,81.901 76.147 M194.594 76.213 C 142.483 82.103,96.689 110.661,62.273 158.732 C 50.271 175.497,29.130 218.427,31.641 220.937 C 31.884 221.180,34.525 219.871,37.510 218.029 C 40.495 216.186,43.131 214.679,43.368 214.679 C 43.897 214.679,42.740 221.032,40.911 228.175 C 36.227 246.469,32.603 271.560,34.645 271.560 C 35.180 271.560,38.131 268.816,41.203 265.464 L 46.789 259.368 46.789 270.785 C 46.789 301.161,49.364 313.953,53.566 304.451 C 54.798 301.664,56.603 298.076,57.576 296.476 L 59.345 293.567 67.670 304.811 C 82.041 324.220,96.650 338.510,100.781 337.199 C 101.656 336.921,103.991 333.908,105.968 330.503 C 112.481 319.286,123.517 310.893,136.689 307.138 C 142.136 305.585,142.195 304.317,137.203 296.095 C 108.289 248.469,109.194 197.281,139.754 151.835 C 163.891 115.941,196.083 97.115,251.367 86.562 L 264.662 84.024 256.872 81.555 C 241.240 76.600,212.771 74.158,194.594 76.213 M233.148 97.702 C 226.403 99.422,220.672 101.041,220.413 101.300 C 219.739 101.973,221.876 133.699,222.883 137.989 C 223.872 142.197,227.185 145.820,231.296 147.189 C 235.693 148.653,236.825 151.161,233.945 153.058 C 224.911 159.008,224.580 162.942,231.832 178.124 C 243.996 203.588,248.620 208.251,258.126 204.637 C 261.724 203.269,263.118 205.599,261.158 209.708 C 257.436 217.513,258.310 219.373,271.787 232.341 C 290.210 250.068,294.871 252.382,302.628 247.653 C 307.953 244.406,309.557 245.374,310.097 252.162 C 310.654 259.173,312.795 261.371,326.143 268.637 C 353.387 283.467,356.852 283.289,365.193 266.637 C 370.006 257.027,369.988 254.019,365.087 249.494 C 360.775 245.514,339.622 233.935,331.653 231.193 L 326.209 229.320 321.645 231.579 C 316.395 234.177,315.454 233.968,316.174 230.367 C 316.995 226.265,314.609 222.949,303.004 212.065 C 286.703 196.774,284.101 194.941,278.816 195.020 C 274.901 195.079,274.516 194.910,275.285 193.475 C 278.634 187.216,260.603 149.594,253.115 147.217 C 251.432 146.683,251.538 146.373,254.548 143.042 L 257.798 139.444 257.790 129.126 C 257.781 116.443,256.269 98.616,255.002 96.249 C 253.602 93.632,247.522 94.036,233.148 97.702 M246.146 119.815 L 246.652 128.162 244.039 125.549 C 241.105 122.616,238.952 122.285,236.044 124.322 C 233.545 126.072,233.377 125.746,232.571 117.574 C 231.921 110.980,231.947 110.857,233.783 111.840 C 236.512 113.300,241.790 113.069,243.152 111.429 C 245.006 109.195,245.604 110.871,246.146 119.815 M257.339 173.394 L 260.574 179.817 257.639 179.817 C 254.019 179.817,250.476 182.932,250.413 186.169 C 250.379 187.978,249.529 186.918,246.789 181.651 C 242.410 173.233,242.422 173.394,246.188 173.394 C 249.257 173.394,251.466 171.731,252.584 168.578 C 253.464 166.097,253.874 166.513,257.339 173.394 M126.189 200.164 C 124.139 209.179,123.115 223.885,124.541 223.824 C 124.920 223.808,126.031 223.189,127.010 222.448 C 131.080 219.369,135.237 220.965,136.155 225.958 C 137.557 233.576,139.788 234.709,157.339 236.720 C 179.752 239.287,183.887 239.159,188.930 235.743 C 193.840 232.416,194.868 232.614,195.236 236.957 C 195.852 244.218,225.221 269.725,232.966 269.725 C 235.987 269.725,236.234 272.182,233.594 275.991 C 232.273 277.897,231.193 280.593,231.193 281.982 C 231.193 285.212,238.699 307.583,242.717 316.328 C 244.799 320.860,245.435 323.123,244.685 323.330 C 244.076 323.499,241.938 323.995,239.933 324.433 C 235.367 325.431,234.462 326.972,225.651 348.777 C 219.158 364.847,219.009 365.108,216.634 364.534 C 215.307 364.213,206.686 361.391,197.477 358.264 L 180.734 352.579 175.880 354.775 L 171.026 356.971 162.212 351.837 C 151.292 345.477,147.846 344.731,144.563 348.014 C 139.724 352.854,142.449 356.748,156.422 364.963 L 165.596 370.357 165.671 375.776 C 165.803 385.251,169.331 387.724,194.209 395.783 C 212.566 401.730,214.885 401.342,219.215 391.604 C 220.414 388.905,222.183 384.962,223.145 382.841 C 225.371 377.930,227.147 377.420,234.194 379.667 C 249.904 384.677,251.521 383.667,259.014 364.163 C 268.847 338.571,269.031 337.118,263.270 330.557 C 259.247 325.975,259.557 325.424,268.572 321.114 C 279.809 315.743,280.406 312.833,273.847 295.413 C 264.181 269.737,262.264 266.972,254.134 266.972 C 247.753 266.972,245.323 262.320,248.950 257.048 C 256.151 246.580,254.440 243.466,231.102 224.564 C 217.890 213.863,214.968 213.088,208.125 218.471 C 201.773 223.468,194.341 221.096,193.433 213.783 C 192.262 204.346,180.745 200.528,151.050 199.734 L 143.843 199.541 140.299 203.526 C 136.171 208.167,136.040 208.156,131.985 202.824 C 128.296 197.975,126.839 197.307,126.189 200.164 M165.367 212.474 C 168.773 212.817,171.560 213.200,171.560 213.325 C 171.560 213.450,170.943 214.734,170.189 216.180 C 168.407 219.597,168.459 220.976,170.493 224.312 L 172.171 227.064 162.625 225.763 C 153.623 224.536,153.113 224.352,153.689 222.552 C 155.198 217.836,155.192 215.497,153.665 213.166 L 152.075 210.740 155.624 211.296 C 157.577 211.601,161.961 212.132,165.367 212.474 M294.659 220.066 L 299.869 225.042 296.953 227.001 C 294.676 228.530,293.936 229.783,293.578 232.721 L 293.119 236.482 286.697 230.631 L 280.275 224.779 282.883 222.684 C 285.633 220.473,286.201 217.934,284.980 213.303 L 284.254 210.550 286.852 212.820 C 288.281 214.068,291.794 217.329,294.659 220.066 M229.024 238.054 L 237.897 245.374 235.009 245.964 C 231.471 246.688,229.393 248.335,228.070 251.462 L 227.064 253.841 218.597 246.712 L 210.130 239.582 213.551 237.910 C 215.973 236.727,217.230 235.364,217.854 233.245 C 218.949 229.524,218.399 229.288,229.024 238.054 M353.938 255.951 C 356.167 258.061,356.074 259.993,353.553 263.991 C 351.704 266.923,348.511 266.612,340.665 262.735 C 334.404 259.641,332.335 257.798,335.123 257.798 C 337.425 257.798,339.696 252.485,338.661 249.518 L 337.722 246.822 344.778 250.391 C 348.659 252.354,352.781 254.856,353.938 255.951 M262.385 298.321 C 262.385 298.740,261.181 299.083,259.708 299.083 C 255.744 299.083,254.217 299.919,252.651 302.949 C 250.941 306.255,251.137 306.436,248.321 298.951 L 246.027 292.856 249.497 293.321 C 252.622 293.741,253.225 293.462,255.577 290.515 L 258.188 287.243 260.287 292.401 C 261.441 295.238,262.385 297.902,262.385 298.321 M130.057 316.985 C 104.289 326.450,102.803 363.305,127.743 374.387 C 137.537 378.740,157.423 376.218,158.527 370.484 C 158.899 368.553,145.723 361.737,139.289 360.531 C 124.493 357.758,121.143 339.447,134.269 333.093 C 142.327 329.192,149.911 332.416,155.152 341.971 C 157.002 345.343,162.221 349.384,166.741 350.944 C 171.258 352.502,171.972 351.283,171.292 343.176 C 169.635 323.406,148.728 310.127,130.057 316.985 M246.668 348.139 C 248.189 348.473,250.284 348.291,251.322 347.735 C 253.592 346.520,253.596 346.552,251.739 351.035 C 250.929 352.989,249.668 356.032,248.936 357.798 L 247.605 361.009 245.880 358.724 C 244.451 356.832,243.373 356.437,239.615 356.430 L 235.076 356.422 236.907 351.835 C 237.914 349.312,239.154 346.085,239.663 344.664 L 240.589 342.081 242.246 344.806 C 243.252 346.460,244.990 347.770,246.668 348.139 M197.248 370.339 C 201.032 371.690,204.277 372.907,204.458 373.042 C 204.639 373.178,203.917 374.512,202.852 376.006 C 200.583 379.193,200.382 382.313,202.272 385.012 C 203.502 386.768,202.723 386.630,193.786 383.507 C 188.373 381.615,183.361 379.886,182.648 379.663 C 181.816 379.403,182.557 378.546,184.712 377.274 C 187.699 375.512,188.073 374.879,188.073 371.591 C 188.073 367.151,188.255 367.127,197.248 370.339 " stroke="none" fill="#000000" fill-rule="evenodd"></path></g></svg>
